assets/playing_guitar-f366fa54.svg

<svg width="232" height="255" viewBox="0 0 232 255" fill="none" xmlns="http://www.w3.org/2000/svg">
<path d="M90.5663 251.458L84.6851 251.458L81.8874 228.829L90.5675 228.829L90.5663 251.458Z" fill="#A0616A"/>
<path d="M70.4165 251.325C70.2334 251.633 70.1367 252.626 70.1367 252.984C70.1367 254.083 71.0304 254.975 72.1329 254.975H90.3463C91.0984 254.975 91.7081 254.367 91.7081 253.617V252.86C91.7081 252.86 92.6091 250.587 90.7541 247.785C90.7541 247.785 88.4486 249.979 85.0035 246.542L83.9876 244.706L76.6338 250.071L72.5577 250.572C71.6659 250.681 70.8752 250.555 70.4165 251.325Z" fill="#2F2E41"/>
<path d="M64.2154 251.458L58.3341 251.458L55.5364 228.829L64.2165 228.829L64.2154 251.458Z" fill="#A0616A"/>
<path d="M44.0656 251.325C43.8824 251.633 43.7858 252.626 43.7858 252.984C43.7858 254.083 44.6795 254.975 45.7819 254.975H63.9954C64.7474 254.975 65.3571 254.367 65.3571 253.617V252.86C65.3571 252.86 66.2581 250.587 64.4031 247.785C64.4031 247.785 62.0976 249.979 58.6526 246.542L57.6367 244.706L50.2828 250.071L46.2067 250.572C45.315 250.681 44.5243 250.555 44.0656 251.325Z" fill="#2F2E41"/>
<path d="M91.0713 109.489L96.5468 123.485L92.2691 235.287H80.2914L69.5114 134.409L66.9448 235.629L55.3093 235.287L42.6472 122.973L51.0316 112.902L91.0713 109.489Z" fill="#2F2E41"/>
<path d="M65.2337 30.1176L79.6069 29.0935L84.0558 36.2625L97.4024 40.0177L92.4402 74.6678L97.7446 126.387C97.7446 126.387 78.5803 123.656 77.2114 129.118C75.8425 134.58 42.305 123.656 42.305 123.656L53.7693 88.323L52.7427 60.6712L49.6627 44.6263L63.6937 38.1401L65.2337 30.1176Z" fill="#E6E6E6"/>
<path d="M58.7315 40.359C58.7315 40.359 47.2779 40.1883 45.7325 44.9677C44.1872 49.747 39.0539 82.861 39.0539 82.861L35.1183 97.3696L52.7427 88.6644L48.9782 82.8704L61.2981 59.3057L58.7315 40.359Z" fill="#E6E6E6"/>
<path d="M65.7384 93.4437C67.6322 93.4457 69.3928 92.3569 70.1291 90.6164C70.6859 89.3001 70.6334 88.0372 70.2168 86.9544C70.3508 86.899 70.4838 86.8413 70.621 86.7923C70.4194 86.7108 70.2234 86.6187 70.0275 86.5265C69.3453 85.1701 68.0374 84.1858 66.4796 83.9467C64.55 81.8848 63.364 79.122 63.3516 76.0814C63.3261 69.8147 68.4221 64.5801 74.7025 64.4298C74.7519 64.4286 74.8013 64.4277 74.8506 64.4272C77.6629 64.3949 80.214 65.9641 81.6389 68.383C82.4703 69.7944 84.0067 70.7419 85.7669 70.7419C87.1145 70.7419 88.3301 70.1862 89.1991 69.2922C91.0924 67.3445 93.4631 65.8953 96.146 65.4507C97.9079 65.1587 99.7314 65.0485 101.597 65.1411C114.369 65.7744 125.357 77.0661 125.63 89.8193C125.933 104.024 114.481 115.633 100.311 115.633C92.938 115.633 86.3039 112.488 81.6772 107.471C79.6232 105.243 76.7448 103.995 73.7108 104.026C73.6799 104.026 73.649 104.027 73.6181 104.027C68.704 104.027 64.7204 100.053 64.7204 95.1507C64.7204 94.8788 64.7339 94.6102 64.7593 94.3451C64.8068 93.8494 65.2392 93.4432 65.7384 93.4437Z" fill="#7C3AED"/>
<path d="M231.255 187.968C230.634 186.923 227.944 188.042 227.45 187.093C226.957 186.148 229.456 184.707 230.884 181.416C231.141 180.823 232.763 177.083 231.562 175.929C229.286 173.741 218.869 182.768 215.224 179.814C214.424 179.166 213.865 177.872 211.444 175.77C210.48 174.934 209.898 174.557 209.334 174.697C208.534 174.897 208.471 175.965 207.613 178.064C206.327 181.213 205.566 181.023 204.817 183.535C204.261 185.4 204.388 186.484 203.733 186.696C202.807 186.995 201.954 185.016 200.78 185.194C199.582 185.374 198.857 187.678 198.629 189.402C198.199 192.638 199.391 194.773 200.051 197.019C200.769 199.459 201.194 203.17 199.537 208.423L183.135 254.523C186.756 245.063 197.241 219.132 201.647 209.496C202.918 206.715 204.323 203.893 207.206 202.779C209.982 201.707 213.795 202.347 218.655 201.179C219.223 201.043 220.798 200.643 220.997 199.719C221.161 198.955 220.234 198.528 220.376 197.813C220.567 196.853 222.389 196.841 224.629 195.733C226.207 194.952 227.191 194.024 228.037 193.225C228.292 192.984 232.083 189.36 231.255 187.968Z" fill="#F2F2F2"/>
<path d="M166.725 212.237C166.031 212.24 165.806 213.88 165.196 213.848C164.589 213.816 164.601 212.177 163.394 210.529C163.176 210.231 161.804 208.358 160.89 208.613C159.157 209.096 160.593 216.801 158.087 217.733C157.537 217.938 156.739 217.838 155.007 218.417C154.318 218.648 153.964 218.824 153.87 219.141C153.738 219.59 154.245 219.929 155.03 220.955C156.208 222.493 155.895 222.811 156.915 223.902C157.672 224.713 158.242 224.964 158.158 225.345C158.037 225.885 156.818 225.732 156.566 226.357C156.31 226.996 157.234 228.015 158.016 228.625C159.485 229.769 160.879 229.802 162.174 230.126C163.582 230.479 165.531 231.341 167.637 233.668L185.586 255C181.977 250.498 172.244 237.882 168.774 232.945C167.772 231.52 166.789 230.018 167.073 228.285C167.347 226.617 168.762 224.935 169.589 222.218C169.686 221.901 169.944 221.014 169.546 220.65C169.218 220.349 168.74 220.68 168.429 220.404C168.012 220.033 168.532 219.138 168.633 217.722C168.704 216.724 168.531 215.974 168.382 215.33C168.338 215.135 167.648 212.234 166.725 212.237Z" fill="#F2F2F2"/>
<path d="M180.566 215.337L180.148 211.614L180.339 211.332C181.223 210.027 181.674 208.753 181.679 207.543C181.68 207.351 181.671 207.159 181.662 206.963C181.626 206.186 181.581 205.221 182.085 204.096C182.368 203.469 183.163 202.016 184.357 202.196C184.679 202.241 184.922 202.388 185.107 202.561C185.134 202.518 185.162 202.475 185.192 202.428C185.564 201.862 185.858 201.619 186.142 201.385C186.36 201.206 186.585 201.02 186.939 200.582C187.093 200.39 187.214 200.221 187.316 200.079C187.625 199.649 188.029 199.137 188.74 199.146C189.501 199.182 189.899 199.809 190.163 200.224C190.634 200.965 190.848 201.499 190.989 201.853C191.04 201.982 191.099 202.128 191.129 202.173C191.374 202.532 193.366 202.196 194.116 202.074C195.802 201.793 197.26 201.551 197.861 202.611C198.292 203.37 197.972 204.373 196.882 205.672C196.542 206.077 196.181 206.384 195.86 206.625C196.126 206.783 196.364 207.026 196.46 207.407C196.687 208.309 195.91 209.213 194.15 210.097C193.713 210.318 193.125 210.613 192.301 210.755C191.912 210.822 191.563 210.838 191.264 210.847C191.257 211.019 191.217 211.206 191.112 211.399C190.803 211.965 190.159 212.234 189.19 212.17C188.123 212.114 187.245 211.911 186.47 211.733C185.793 211.578 185.211 211.447 184.753 211.478C183.904 211.546 183.25 212.224 182.483 213.103L180.566 215.337Z" fill="#F2F2F2"/>
<path d="M182.506 193.174L179.002 194.521L178.68 194.408C177.191 193.887 175.841 193.775 174.666 194.077C174.48 194.125 174.295 194.182 174.108 194.241C173.364 194.472 172.439 194.761 171.22 194.559C170.54 194.445 168.931 194.047 168.802 192.849C168.764 192.527 168.845 192.255 168.965 192.033C168.917 192.018 168.868 192.002 168.815 191.985C168.172 191.769 167.862 191.547 167.563 191.332C167.333 191.167 167.097 190.997 166.582 190.767C166.356 190.667 166.162 190.593 165.998 190.531C165.503 190.342 164.904 190.082 164.732 189.393C164.574 188.65 165.082 188.107 165.417 187.747C166.016 187.104 166.479 186.763 166.787 186.537C166.899 186.454 167.026 186.361 167.062 186.321C167.348 185.993 166.517 184.156 166.208 183.463C165.509 181.908 164.903 180.562 165.779 179.713C166.405 179.105 167.459 179.16 168.996 179.882C169.474 180.107 169.864 180.378 170.179 180.626C170.265 180.329 170.439 180.038 170.785 179.849C171.602 179.401 172.676 179.922 173.98 181.395C174.305 181.761 174.74 182.254 175.087 183.013C175.25 183.371 175.354 183.704 175.438 183.99C175.607 183.953 175.799 183.944 176.012 183.997C176.64 184.152 177.064 184.704 177.247 185.656C177.464 186.699 177.49 187.598 177.514 188.391C177.535 189.083 177.556 189.679 177.702 190.113C177.983 190.914 178.806 191.373 179.853 191.891L182.506 193.174Z" fill="#F2F2F2"/>
<path d="M180.566 182.207L180.148 178.485L180.339 178.203C181.223 176.898 181.674 175.623 181.679 174.414C181.68 174.221 181.671 174.029 181.662 173.833C181.626 173.057 181.581 172.092 182.085 170.966C182.368 170.339 183.163 168.887 184.357 169.067C184.679 169.111 184.922 169.259 185.107 169.431C185.134 169.388 185.162 169.345 185.192 169.298C185.564 168.732 185.858 168.49 186.142 168.256C186.36 168.076 186.585 167.891 186.939 167.452C187.093 167.26 187.214 167.091 187.316 166.949C187.625 166.52 188.029 166.007 188.74 166.016C189.501 166.052 189.899 166.68 190.163 167.095C190.634 167.835 190.848 168.369 190.989 168.723C191.04 168.853 191.099 168.998 191.129 169.043C191.374 169.403 193.366 169.067 194.116 168.944C195.802 168.664 197.26 168.421 197.861 169.482C198.292 170.24 197.972 171.243 196.882 172.543C196.542 172.947 196.181 173.254 195.86 173.495C196.126 173.653 196.364 173.896 196.46 174.277C196.687 175.179 195.91 176.084 194.15 176.968C193.713 177.189 193.125 177.484 192.301 177.626C191.912 177.692 191.563 177.708 191.264 177.717C191.257 177.89 191.217 178.077 191.112 178.269C190.803 178.835 190.159 179.105 189.19 179.04C188.123 178.984 187.245 178.781 186.47 178.603C185.793 178.449 185.211 178.318 184.753 178.348C183.904 178.417 183.25 179.094 182.483 179.973L180.566 182.207Z" fill="#F2F2F2"/>
<path d="M184.384 254.462L183.602 253.973L182.691 254.078C182.676 253.993 182.627 253.799 182.552 253.495C182.144 251.831 180.9 246.766 179.862 238.789C179.138 233.221 178.728 227.496 178.643 221.771C178.558 216.038 178.83 211.697 179.048 208.208C179.213 205.577 179.413 203.071 179.61 200.63C180.132 194.11 180.625 187.95 180.258 181.131C180.177 179.608 180.007 176.439 178.151 173.068C177.075 171.112 175.592 169.376 173.743 167.909L174.893 166.467C176.933 168.089 178.574 170.012 179.769 172.183C181.827 175.922 182.012 179.375 182.102 181.034C182.475 187.973 181.976 194.192 181.448 200.776C181.254 203.208 181.054 205.703 180.89 208.323C180.674 211.78 180.404 216.083 180.488 221.743C180.571 227.399 180.976 233.054 181.691 238.552C182.716 246.428 183.942 251.417 184.345 253.057C184.559 253.932 184.604 254.115 184.384 254.462Z" fill="#F2F2F2"/>
<path d="M170.359 170.833C170.284 170.833 170.207 170.832 170.13 170.826C168.558 170.742 167.103 169.803 165.804 168.038C165.195 167.208 164.884 166.261 164.262 164.372C164.166 164.081 163.697 162.603 163.412 160.57C163.226 159.242 163.249 158.687 163.513 158.196C163.806 157.65 164.28 157.268 164.813 157.011C164.79 156.835 164.809 156.654 164.885 156.469C165.2 155.701 166.036 155.802 166.488 155.85C166.717 155.879 167.002 155.917 167.311 155.901C167.795 155.877 168.056 155.734 168.45 155.518C168.828 155.311 169.297 155.054 169.993 154.912C171.366 154.626 172.517 155.015 172.896 155.142C174.892 155.805 175.875 157.353 177.014 159.145C177.241 159.504 178.021 160.813 178.535 162.607C178.906 163.901 178.854 164.476 178.742 164.904C178.515 165.783 177.979 166.286 176.618 167.397C175.196 168.56 174.483 169.142 173.87 169.496C172.444 170.318 171.548 170.833 170.359 170.833Z" fill="#F2F2F2"/>
<path d="M107.84 85.9334L22.6273 69.8885L22.2851 76.0333L106.813 96.1748L107.84 85.9334Z" fill="#7C3AED"/>
<path d="M23.654 70.9126L22.6273 69.8885C22.6273 69.8885 18.1784 67.8402 18.1784 67.4988C18.1784 67.2851 11.609 65.0653 6.69393 63.4344C3.94895 62.5236 1.05006 64.326 0.659194 67.1853L0.0432669 71.691C-0.325019 74.3851 1.71275 76.8101 4.43633 76.9188L16.4673 77.3988L22.2851 76.0333L23.654 70.9126Z" fill="#7C3AED"/>
<path d="M107.669 87.811L107.872 86.9605L22.6049 70.6992L22.4562 71.7661L107.669 87.811Z" fill="#3F3D56"/>
<path d="M107.474 89.4259L107.669 88.4937L22.5122 72.3825L22.4562 73.473L107.474 89.4259Z" fill="#3F3D56"/>
<path d="M107.278 91.3611L107.327 89.8593L22.4453 73.608L22.4562 74.4971L107.278 91.3611Z" fill="#3F3D56"/>
<path d="M107.051 93.6088L106.985 92.2489L22.3215 74.8332L22.2487 75.1665L107.051 93.6088Z" fill="#3F3D56"/>
<path d="M107.049 94.9716L106.985 93.9558L22.4488 75.3966L22.373 75.7293L107.049 94.9716Z" fill="#3F3D56"/>
<path d="M58.0848 38.1825L62.3248 35.8404L64.1639 73.3023L63.5226 77.9109C63.5226 77.9109 52.8181 48.4663 58.0848 38.1825Z" fill="#3F3D56"/>
<path d="M72.5914 26.5331C78.4505 26.5331 83.2002 21.795 83.2002 15.9503C83.2002 10.1056 78.4505 5.36749 72.5914 5.36749C66.7323 5.36749 61.9826 10.1056 61.9826 15.9503C61.9826 21.795 66.7323 26.5331 72.5914 26.5331Z" fill="#A0616A"/>
<path d="M63.5226 22.2658L66.0588 24.2856L63.1804 13.3899C63.1804 13.3899 71.2225 13.2193 71.907 8.7813C71.907 8.7813 78.2381 8.61061 79.9492 8.61061C81.6602 8.61061 82.4323 19.905 82.4323 19.905C82.4323 19.905 85.7669 10.6589 82.3447 5.87956C78.9225 1.10023 80.1203 4.00197 79.4358 2.29507C78.7514 0.588164 71.7359 -0.981652 67.287 0.758853C62.8382 2.49936 62.667 4.98042 61.2982 5.00326C59.9293 5.02611 55.1382 11.8537 59.5871 17.3158C64.0359 22.7779 63.5226 22.2658 63.5226 22.2658Z" fill="#2F2E41"/>
<path d="M95.9332 91.7125C97.1906 90.7116 98.1172 89.5105 98.6394 88.3232L111.222 79.5434L106.859 73.6931L94.5648 83.2291C93.2884 83.4734 91.9086 84.108 90.6511 85.1089C87.7785 87.3953 86.6322 90.7271 88.0908 92.5507C89.5494 94.3742 93.0606 93.999 95.9332 91.7125Z" fill="#A0616A"/>
<path d="M47.7275 78.3576C46.7944 79.6648 46.2347 81.0739 46.06 82.3587L36.3831 94.2517L42.1909 98.6795L51.3819 86.1385C52.5417 85.5534 53.6934 84.5648 54.6264 83.2575C56.7579 80.2712 56.9414 76.7534 55.0364 75.4003C53.1313 74.0472 49.859 75.3712 47.7275 78.3576Z" fill="#A0616A"/>
<path d="M91.9268 42.2366C91.9268 42.2366 95.0068 37.1159 98.0868 40.1883C100.524 42.6195 113.89 58.09 119.362 64.4414C120.871 66.1929 121.7 68.4246 121.7 70.7342C121.7 74.3068 119.723 77.5874 116.56 79.2629L99.4557 88.323L94.6646 81.154L109.38 70.5712L86.7935 58.2815L91.9268 42.2366Z" fill="#E6E6E6"/>
<path d="M37.8426 89.4259L35.1183 97.3696L42.9894 101.466L48.9782 97.3696L52.7427 88.6644L41.6205 85.4213" fill="#E6E6E6"/>
<path d="M165.092 13.2896L139.238 20.2954L142.999 37.0303C141.783 36.2161 140.32 35.7402 138.745 35.7402C134.522 35.7402 131.099 39.155 131.099 43.3673C131.099 47.5797 134.522 50.9944 138.745 50.9944C142.968 50.9944 146.391 47.5797 146.391 43.3673C146.391 41.9032 145.97 40.5403 145.253 39.3788L142.271 26.1108L164.575 19.1158L166.615 28.9991C165.39 28.1683 163.912 27.6818 162.32 27.6818C158.097 27.6818 154.674 31.0966 154.674 35.309C154.674 39.5213 158.097 42.9361 162.32 42.9361C166.543 42.9361 169.966 39.5213 169.966 35.309C169.966 33.8292 169.536 32.4526 168.805 31.2832L165.092 13.2896Z" fill="#7C3AED"/>
<path d="M190.447 28.9332C186.268 28.9332 182.881 32.3125 182.881 36.4811C182.881 37.6596 183.159 38.7704 183.642 39.7642L187.961 57.5344L190.412 56.9416L187.081 43.2333C188.096 43.738 189.236 44.0291 190.447 44.0291C194.626 44.0291 198.014 40.6497 198.014 36.4811C198.014 32.3126 194.626 28.9332 190.447 28.9332Z" fill="#7C3AED"/>
<path d="M221.239 68.0986L216.952 50.9945L214.35 51.6047L217.703 64.9833C216.672 64.5175 215.526 64.2498 214.312 64.2498C209.875 64.2498 206.278 67.7286 206.278 72.0199C206.278 76.3113 209.875 79.7901 214.312 79.7901C218.749 79.7901 222.346 76.3112 222.346 72.0199C222.346 70.5878 221.938 69.2506 221.239 68.0986Z" fill="#7C3AED"/>
</svg>

<svg xmlns="http://www.w3.org/2000/svg" width="232" height="255" fill="none" viewBox="0 0 232 255"><path fill="#A0616A" d="M90.566 251.458h-5.88l-2.799-22.629h8.68v22.629Z"/><path fill="#2F2E41" d="M70.416 251.325c-.183.308-.28 1.301-.28 1.659 0 1.099.894 1.991 1.997 1.991h18.213a1.36 1.36 0 0 0 1.362-1.358v-.757s.901-2.273-.954-5.075c0 0-2.305 2.194-5.75-1.243l-1.016-1.836-7.354 5.365-4.076.501c-.892.109-1.683-.017-2.142.753Z"/><path fill="#A0616A" d="M64.215 251.458h-5.88l-2.799-22.629h8.68v22.629Z"/><path fill="#2F2E41" d="M44.066 251.325c-.184.308-.28 1.301-.28 1.659 0 1.099.893 1.991 1.996 1.991h18.213a1.36 1.36 0 0 0 1.362-1.358v-.757s.901-2.273-.954-5.075c0 0-2.305 2.194-5.75-1.243l-1.016-1.836-7.354 5.365-4.076.501c-.892.109-1.683-.017-2.141.753Zm47.005-141.836 5.476 13.996-4.278 111.802H80.291l-10.78-100.878-2.566 101.22-11.636-.342-12.662-112.314 8.385-10.071 40.04-3.413Z"/><path fill="#E6E6E6" d="m65.234 30.118 14.373-1.024 4.449 7.169 13.346 3.755-4.962 34.65 5.305 51.719s-19.165-2.731-20.534 2.731c-1.368 5.462-34.906-5.462-34.906-5.462l11.464-35.333-1.026-27.652-3.08-16.045 14.03-6.486 1.54-8.022Z"/><path fill="#E6E6E6" d="M58.731 40.359s-11.453-.17-12.998 4.609c-1.546 4.779-6.68 37.893-6.68 37.893L35.119 97.37l17.625-8.706-3.765-5.794 12.32-23.564-2.567-18.947Z"/><path fill="#7C3AED" d="M65.738 93.444c1.894.002 3.655-1.087 4.391-2.828.557-1.316.504-2.579.088-3.662.134-.055.267-.113.404-.162a11.657 11.657 0 0 1-.593-.266 4.787 4.787 0 0 0-3.548-2.58 11.542 11.542 0 0 1-3.128-7.865c-.026-6.266 5.07-11.5 11.35-11.651l.149-.003c2.812-.032 5.363 1.537 6.788 3.956a4.784 4.784 0 0 0 4.128 2.359 4.77 4.77 0 0 0 3.432-1.45c1.893-1.948 4.264-3.397 6.947-3.841a25.557 25.557 0 0 1 5.451-.31c12.772.633 23.76 11.925 24.033 24.678.303 14.205-11.149 25.814-25.319 25.814a25.273 25.273 0 0 1-18.634-8.162 10.66 10.66 0 0 0-7.966-3.445l-.093.001c-4.914 0-8.898-3.974-8.898-8.876 0-.272.014-.54.04-.806.047-.496.48-.902.978-.901Z"/><path fill="#F2F2F2" d="M231.255 187.968c-.621-1.045-3.311.074-3.805-.875-.493-.945 2.006-2.386 3.434-5.677.257-.593 1.879-4.333.678-5.487-2.276-2.188-12.693 6.839-16.338 3.885-.8-.648-1.359-1.942-3.78-4.044-.964-.836-1.546-1.213-2.11-1.073-.8.2-.863 1.268-1.721 3.367-1.286 3.149-2.047 2.959-2.796 5.471-.556 1.865-.429 2.949-1.084 3.161-.926.299-1.779-1.68-2.953-1.502-1.198.18-1.923 2.484-2.151 4.208-.43 3.236.762 5.371 1.422 7.617.718 2.44 1.143 6.151-.514 11.404l-16.402 46.1c3.621-9.46 14.106-35.391 18.512-45.027 1.271-2.781 2.676-5.603 5.559-6.717 2.776-1.072 6.589-.432 11.449-1.6.568-.136 2.143-.536 2.342-1.46.164-.764-.763-1.191-.621-1.906.191-.96 2.013-.972 4.253-2.08 1.578-.781 2.562-1.709 3.408-2.508.255-.241 4.046-3.865 3.218-5.257Z"/><path fill="#F2F2F2" d="M166.725 212.237c-.694.003-.919 1.643-1.529 1.611-.607-.032-.595-1.671-1.802-3.319-.218-.298-1.59-2.171-2.504-1.916-1.733.483-.297 8.188-2.803 9.12-.55.205-1.348.105-3.08.684-.689.231-1.043.407-1.137.724-.132.449.375.788 1.16 1.814 1.178 1.538.865 1.856 1.885 2.947.757.811 1.327 1.062 1.243 1.443-.121.54-1.34.387-1.592 1.012-.256.639.668 1.658 1.45 2.268 1.469 1.144 2.863 1.177 4.158 1.501 1.408.353 3.357 1.215 5.463 3.542L185.586 255c-3.609-4.502-13.342-17.118-16.812-22.055-1.002-1.425-1.985-2.927-1.701-4.66.274-1.668 1.689-3.35 2.516-6.067.097-.317.355-1.204-.043-1.568-.328-.301-.806.03-1.117-.246-.417-.371.103-1.266.204-2.682.071-.998-.102-1.748-.251-2.392-.044-.195-.734-3.096-1.657-3.093Zm13.841 3.1-.418-3.723.191-.282c.884-1.305 1.335-2.579 1.34-3.789.001-.192-.008-.384-.017-.58-.036-.777-.081-1.742.423-2.867.283-.627 1.078-2.08 2.272-1.9.322.045.565.192.75.365l.085-.133c.372-.566.666-.809.95-1.043.218-.179.443-.365.797-.803.154-.192.275-.361.377-.503.309-.43.713-.942 1.424-.933.761.036 1.159.663 1.423 1.078a8.96 8.96 0 0 1 .826 1.629c.051.129.11.275.14.32.245.359 2.237.023 2.987-.099 1.686-.281 3.144-.523 3.745.537.431.759.111 1.762-.979 3.061-.34.405-.701.712-1.022.953.266.158.504.401.6.782.227.902-.55 1.806-2.31 2.69-.437.221-1.025.516-1.849.658a7.227 7.227 0 0 1-1.037.092 1.241 1.241 0 0 1-.152.552c-.309.566-.953.835-1.922.771-1.067-.056-1.945-.259-2.72-.437-.677-.155-1.259-.286-1.717-.255-.849.068-1.503.746-2.27 1.625l-1.917 2.234Zm1.94-22.163-3.504 1.347-.322-.113c-1.489-.521-2.839-.633-4.014-.331-.186.048-.371.105-.558.164-.744.231-1.669.52-2.888.318-.68-.114-2.289-.512-2.418-1.71a1.35 1.35 0 0 1 .163-.816l-.15-.048a4.122 4.122 0 0 1-1.252-.653c-.23-.165-.466-.335-.981-.565-.226-.1-.42-.174-.584-.236-.495-.189-1.094-.449-1.266-1.138-.158-.743.35-1.286.685-1.646a8.93 8.93 0 0 1 1.37-1.21c.112-.083.239-.176.275-.216.286-.328-.545-2.165-.854-2.858-.699-1.555-1.305-2.901-.429-3.75.626-.608 1.68-.553 3.217.169a6.12 6.12 0 0 1 1.183.744 1.24 1.24 0 0 1 .606-.777c.817-.448 1.891.073 3.195 1.546.325.366.76.859 1.107 1.618.163.358.267.691.351.977a1.24 1.24 0 0 1 .574.007c.628.155 1.052.707 1.235 1.659.217 1.043.243 1.942.267 2.735.021.692.042 1.288.188 1.722.281.801 1.104 1.26 2.151 1.778l2.653 1.283Zm-1.94-10.967-.418-3.722.191-.282c.884-1.305 1.335-2.58 1.34-3.789.001-.193-.008-.385-.017-.581-.036-.776-.081-1.741.423-2.867.283-.627 1.078-2.079 2.272-1.899.322.044.565.192.75.364l.085-.133c.372-.566.666-.808.95-1.042.218-.18.443-.365.797-.804.154-.192.275-.361.377-.503.309-.429.713-.942 1.424-.933.761.036 1.159.664 1.423 1.079.471.74.685 1.274.826 1.628.051.13.11.275.14.32.245.36 2.237.024 2.987-.099 1.686-.28 3.144-.523 3.745.538.431.758.111 1.761-.979 3.061-.34.404-.701.711-1.022.952.266.158.504.401.6.782.227.902-.55 1.807-2.31 2.691-.437.221-1.025.516-1.849.658a7.36 7.36 0 0 1-1.037.091c-.007.173-.047.36-.152.552-.309.566-.953.836-1.922.771-1.067-.056-1.945-.259-2.72-.437-.677-.154-1.259-.285-1.717-.255-.849.069-1.503.746-2.27 1.625l-1.917 2.234Z"/><path fill="#F2F2F2" d="m184.384 254.462-.782-.489-.911.105c-.015-.085-.064-.279-.139-.583-.408-1.664-1.652-6.729-2.69-14.706a149.725 149.725 0 0 1-1.219-17.018c-.085-5.733.187-10.074.405-13.563.165-2.631.365-5.137.562-7.578.522-6.52 1.015-12.68.648-19.499-.081-1.523-.251-4.692-2.107-8.063-1.076-1.956-2.559-3.692-4.408-5.159l1.15-1.442c2.04 1.622 3.681 3.545 4.876 5.716 2.058 3.739 2.243 7.192 2.333 8.851.373 6.939-.126 13.158-.654 19.742-.194 2.432-.394 4.927-.558 7.547-.216 3.457-.486 7.76-.402 13.42.083 5.656.488 11.311 1.203 16.809 1.025 7.876 2.251 12.865 2.654 14.505.214.875.259 1.058.039 1.405Z"/><path fill="#F2F2F2" d="M170.359 170.833c-.075 0-.152-.001-.229-.007-1.572-.084-3.027-1.023-4.326-2.788-.609-.83-.92-1.777-1.542-3.666-.096-.291-.565-1.769-.85-3.802-.186-1.328-.163-1.883.101-2.374.293-.546.767-.928 1.3-1.185a1.045 1.045 0 0 1 .072-.542c.315-.768 1.151-.667 1.603-.619.229.029.514.067.823.051.484-.024.745-.167 1.139-.383.378-.207.847-.464 1.543-.606 1.373-.286 2.524.103 2.903.23 1.996.663 2.979 2.211 4.118 4.003a14.009 14.009 0 0 1 1.521 3.462c.371 1.294.319 1.869.207 2.297-.227.879-.763 1.382-2.124 2.493-1.422 1.163-2.135 1.745-2.748 2.099-1.426.822-2.322 1.337-3.511 1.337Z"/><path fill="#7C3AED" d="M107.84 85.933 22.627 69.888l-.342 6.145 84.528 20.142 1.027-10.242Z"/><path fill="#7C3AED" d="m23.654 70.913-1.027-1.025s-4.449-2.048-4.449-2.39c0-.213-6.569-2.433-11.484-4.064-2.745-.91-5.644.892-6.035 3.751l-.616 4.506c-.368 2.694 1.67 5.12 4.393 5.228l12.031.48 5.818-1.366 1.369-5.12Z"/><path fill="#3F3D56" d="m107.669 87.811.203-.85-85.267-16.262-.149 1.067 85.213 16.045Zm-.195 1.615.195-.932-85.157-16.112-.056 1.091 85.018 15.953Zm-.196 1.935.049-1.502-84.882-16.251.011.89 84.822 16.863Zm-.227 2.248-.066-1.36-84.663-17.416-.073.334 84.802 18.442Zm-.002 1.363-.064-1.016-84.536-18.56-.076.333 84.676 19.243Zm-48.964-56.79 4.24-2.342 1.839 37.462-.641 4.609s-10.705-29.445-5.438-39.729Z"/><path fill="#A0616A" d="M72.591 26.533c5.86 0 10.61-4.738 10.61-10.583 0-5.844-4.75-10.583-10.61-10.583-5.859 0-10.608 4.739-10.608 10.583 0 5.845 4.75 10.583 10.608 10.583Z"/><path fill="#2F2E41" d="m63.523 22.266 2.536 2.02L63.18 13.39s8.042-.17 8.727-4.609c0 0 6.331-.17 8.042-.17 1.711 0 2.483 11.294 2.483 11.294s3.335-9.246-.087-14.025c-3.422-4.78-2.225-1.878-2.91-3.585C78.752.588 71.736-.982 67.288.76c-4.449 1.74-4.62 4.221-5.989 4.244-1.369.023-6.16 6.85-1.71 12.313 4.448 5.462 3.935 4.95 3.935 4.95Z"/><path fill="#A0616A" d="M95.933 91.713c1.258-1.001 2.184-2.203 2.706-3.39l12.583-8.78-4.363-5.85-12.294 9.536c-1.277.244-2.656.879-3.914 1.88-2.873 2.286-4.019 5.618-2.56 7.442 1.458 1.823 4.97 1.448 7.842-.838ZM47.727 78.358c-.933 1.307-1.492 2.716-1.667 4l-9.677 11.894 5.808 4.428 9.19-12.542c1.16-.585 2.312-1.573 3.245-2.88 2.132-2.987 2.315-6.505.41-7.858-1.905-1.353-5.177-.029-7.309 2.958Z"/><path fill="#E6E6E6" d="M91.927 42.237s3.08-5.121 6.16-2.049c2.437 2.431 15.803 17.902 21.275 24.253a9.638 9.638 0 0 1 2.338 6.293 9.653 9.653 0 0 1-5.14 8.529l-17.104 9.06-4.791-7.169 14.715-10.583-22.587-12.29 5.134-16.044ZM37.843 89.426l-2.725 7.944 7.871 4.096 5.99-4.096 3.764-8.706-11.123-3.243"/><path fill="#7C3AED" d="m165.092 13.29-25.854 7.005 3.761 16.735a7.62 7.62 0 0 0-4.254-1.29c-4.223 0-7.646 3.415-7.646 7.627 0 4.213 3.423 7.627 7.646 7.627s7.646-3.414 7.646-7.627a7.566 7.566 0 0 0-1.138-3.988l-2.982-13.268 22.304-6.995 2.04 9.883a7.626 7.626 0 0 0-4.295-1.317c-4.223 0-7.646 3.415-7.646 7.627s3.423 7.627 7.646 7.627 7.646-3.415 7.646-7.627a7.57 7.57 0 0 0-1.161-4.026l-3.713-17.993Zm25.355 15.643c-4.179 0-7.566 3.38-7.566 7.548 0 1.179.278 2.29.761 3.283l4.319 17.77 2.451-.592-3.331-13.709a7.535 7.535 0 0 0 3.366.796c4.179 0 7.567-3.38 7.567-7.548s-3.388-7.548-7.567-7.548Zm30.792 39.166-4.287-17.105-2.602.61 3.353 13.38a8.213 8.213 0 0 0-3.391-.734c-4.437 0-8.034 3.479-8.034 7.77 0 4.291 3.597 7.77 8.034 7.77 4.437 0 8.034-3.479 8.034-7.77a7.53 7.53 0 0 0-1.107-3.921Z"/></svg>
